X: 2
T: Muineira De Casu
R: jig
M: 6/8
L: 1/8
K: Gmaj
|:DFG|ABA GFG|AFD DFG|ABA GFE|F2D DFG|
ABA GFG|AFD DFG|ABA GFE|1D3 DFG:|2D3 dcB||
|:AFB AFG|AFD DFG|ABA GFE|F2D dcB|
AFB AFG|AFD DFG|ABA GFE|1D3 dcB:|2 D3 DEF||
|:E2G GFG|AFD DEF|E2G GFE|F2D DEF|
E2G GFG|AFD DEF|ABA GFE|1 D3 DEF:|2 D3 DFG||


Tune 1096	Setting 1096

